wp-content/themes/sst/img/lk_logo_grey.svg

<svg xmlns="http://www.w3.org/2000/svg" width="206" height="42" viewBox="0 0 206 42" xmlns:xlink="http://www.w3.org/1999/xlink"><defs><path id="a" d="M.06.07h205.693v41.87H.06"/></defs><g fill="none" fill-rule="evenodd"><path fill="#464644" d="M54.828 39.96h-8.824V12.18h3.715v24.415h5.1v3.366m10.6-13.54v-9.25c0-1.08-.54-1.62-1.63-1.62h-1c-1.09 0-1.63.55-1.63 1.63v9.25h4.25zm-4.25 13.54h-3.71V16.94c0-3.17 1.48-4.758 4.44-4.758h2.79c2.96 0 4.45 1.587 4.45 4.758v23.02h-3.71V29.785h-4.26V39.96zm23.34-27.78V34.7c0 3.51-1.5 5.264-4.49 5.264h-3.13c-2.97 0-4.45-1.766-4.45-5.3V12.18h3.71v22.595c0 1.213.54 1.82 1.62 1.82h1.51c1 0 1.5-.607 1.5-1.82V12.18h3.72m7.13 13.387h2.44c1.11 0 1.66-.67 1.66-2.01V17.56c0-1.34-.56-2.015-1.67-2.015h-2.43v10.022zm-3.7-13.387h7.27c2.84 0 4.26 1.587 4.26 4.758v6.85c0 2.425-.74 3.96-2.21 4.604l2.6 11.568h-3.52l-2.44-11.22h-2.25v11.22h-3.71V12.18zm14.92 27.78V12.18h9.2v3.365h-5.49v8.435h4.88v3.367h-4.88v9.248h5.49v3.366h-9.208m19.91-14.35V12.18h3.72v27.78h-3.714v-5.53l-3.988-12.653V39.96h-3.716V12.18h3.72l3.99 13.425m6.55-3.25l1.785-4.992h-1.82v-5.22h2.59c1.035 0 1.55.515 1.55 1.545v3.675l-1.86 4.993h-2.244m14.54-2.708v-2.44c0-1.107-.54-1.663-1.62-1.663h-.584c-1.055 0-1.584.556-1.584 1.663v4.606c0 .515.1.866.31 1.046.204.18.54.41 1.006.697l3.52 1.893c.774.44 1.323.782 1.645 1.027.32.246.57.54.75.89.18.35.27 1.013.27 1.992v5.92c0 3.12-1.493 4.68-4.485 4.68h-2.29c-2.96 0-4.45-1.7-4.45-5.11v-1.39h3.72v1.51c0 1.08.55 1.62 1.66 1.62h.66c.97 0 1.46-.54 1.46-1.63v-4.72c0-.52-.1-.87-.31-1.05-.202-.18-.54-.41-1-.7l-3.52-1.98c-.772-.42-1.332-.76-1.68-1.05-.35-.29-.6-.65-.754-1.11-.15-.45-.23-1.04-.23-1.76V16.9c0-3.17 1.48-4.754 4.45-4.754h2.32c2.97 0 4.45 1.587 4.45 4.76v2.71h-3.72m26.05 20.33h-3.714l-4.64-13.58v-.235l3.87-13.96h3.403l-3.91 13.81 4.99 13.97zm-12.27-27.78h3.717v27.78h-3.718V12.18zm15.014 0h3.712v27.78h-3.715V12.18zm10.82 24.414h2.785c.97 0 1.47-.412 1.47-1.24V17.56c0-1.342-.56-2.014-1.67-2.014h-2.59v21.05zm-3.71 3.367V12.18h6.46c3.48 0 5.22 1.78 5.22 5.34v18.416c0 2.682-1.484 4.025-4.45 4.025h-7.234z"/><mask id="b" fill="#fff"><use xlink:href="#a"/></mask><path fill="#464644" d="M202.038 19.648v-2.44c0-1.107-.54-1.663-1.625-1.663h-.58c-1.06 0-1.586.556-1.586 1.663v4.606c0 .515.102.866.308 1.046.207.18.543.41 1.006.697l3.52 1.893c.78.44 1.33.782 1.65 1.027.32.246.58.54.76.89.19.35.28 1.013.28 1.992v5.92c0 3.12-1.49 4.68-4.49 4.68H199c-2.964 0-4.45-1.7-4.45-5.11v-1.39h3.718v1.51c0 1.08.556 1.62 1.666 1.62h.655c.98 0 1.47-.54 1.47-1.63v-4.72c0-.52-.1-.87-.31-1.05-.21-.18-.54-.41-1.01-.7l-3.52-1.98c-.77-.42-1.34-.76-1.68-1.05-.35-.29-.6-.65-.76-1.11-.15-.45-.23-1.04-.23-1.76V16.9c0-3.17 1.49-4.754 4.45-4.754h2.32c2.96 0 4.45 1.587 4.45 4.76v2.71h-3.72M31.31 18.19c-.44.206-.733.538-.993.94-.186.286-.364.674-.75.695-.255.016-1.233-.627-1.338-.692-.11-.06-.14-.03-.08.04.79.786 1.18 1.85.17 2.65-.46.365-1.13.525-1.7.405-1.08-.23-.84-1.942-.72-2.72v-.047l-.04-.05-.06-.01-.04.03c-.66.44-2.12 1.36-2.78.47-.35-.47-.48-1.15-.33-1.71.31-1.25 1.44-1.33 2.48-.93.09.04.1-.01 0-.08-.1-.06-1.09-.69-1.18-.93-.14-.36.14-.68.32-.97.26-.4.44-.8.446-1.29.007-.29-.03-.81.42-.73.09.02.25.07.34.13 1.16.75 1.36 2.2 1.31 3.46-.02.34-.054.68-.106 1.01-.015.1.105.04.15.05l.006.006.1.12c.283-.19.577-.36.88-.51 1.13-.57 2.53-.98 3.69-.24.095.066.205.185.26.26.264.375-.225.557-.49.68m-2.6-8.11c-7.18-1.87-10.746 4.705-10.823 4.85-.078-.145-3.645-6.72-10.825-4.85-7.238 1.87-15.1 14.35 10.84 31.9h.005V42c25.94-17.55 18.09-30.03 10.83-31.92m11.62-5.722c-.056-.078-.165-.197-.26-.26-1.16-.743-2.56-.33-3.69.238-.304.153-.598.324-.88.51l-.1-.118-.006-.005c-.046-.01-.166.05-.15-.043.05-.332.085-.672.103-1.01.06-1.266-.14-2.71-1.3-3.46-.094-.063-.25-.113-.342-.13-.45-.09-.41.432-.41.73 0 .483-.18.885-.44 1.288-.18.287-.46.608-.32.97.1.24 1.08.866 1.19.933.1.07.09.12 0 .08-1.04-.39-2.17-.31-2.482.94-.14.57-.01 1.25.33 1.72.657.89 2.12-.03 2.778-.46l.04-.02.06.02.044.05-.01.05c-.128.78-.37 2.5.712 2.72.57.12 1.243-.04 1.7-.4 1.01-.8.615-1.86-.176-2.65-.064-.07-.03-.09.07-.03.11.07 1.087.71 1.34.697.387-.02.566-.41.75-.694.26-.404.554-.735.99-.94.27-.127.76-.31.494-.68" mask="url(#b)"/></g></svg>

<?xml version="1.0" encoding="UTF-8" standalone="no"?>
<svg width="206px" height="42px" viewBox="0 0 206 42" version="1.1" xmlns="http://www.w3.org/2000/svg" xmlns:xlink="http://www.w3.org/1999/xlink" xmlns:sketch="http://www.bohemiancoding.com/sketch/ns">
    <!-- Generator: Sketch 3.1.1 (8761) - http://www.bohemiancoding.com/sketch -->
    <title>Slice 2</title>
    <desc>Created with Sketch.</desc>
    <defs>
        <path id="path-1" d="M0.06,0.069 L205.753,0.069 L205.753,41.94 L0.06,41.94"></path>
    </defs>
    <g id="Page-1" stroke="none" stroke-width="1" fill="none" fill-rule="evenodd" sketch:type="MSPage">
        <g id="LK_Logo_Grey-02" sketch:type="MSLayerGroup">
            <path d="M54.828,39.961 L46.004,39.961 L46.004,12.18 L49.719,12.18 L49.719,36.595 L54.828,36.595 L54.828,39.961" id="Fill-1" fill="#464644" sketch:type="MSShapeGroup"></path>
            <path d="M65.428,26.418 L65.428,17.171 C65.428,16.088 64.888,15.545 63.803,15.545 L62.797,15.545 C61.714,15.545 61.173,16.088 61.173,17.171 L61.173,26.418 L65.428,26.418 L65.428,26.418 Z M61.173,39.961 L57.458,39.961 L57.458,16.938 C57.458,13.767 58.94,12.18 61.906,12.18 L64.694,12.18 C67.658,12.18 69.142,13.767 69.142,16.938 L69.142,39.961 L65.428,39.961 L65.428,29.784 L61.173,29.784 L61.173,39.961 L61.173,39.961 Z" id="Fill-2" fill="#464644" sketch:type="MSShapeGroup"></path>
            <path d="M84.514,12.18 L84.514,34.697 C84.514,38.206 83.018,39.961 80.024,39.961 L76.892,39.961 C73.924,39.961 72.441,38.192 72.441,34.658 L72.441,12.18 L76.155,12.18 L76.155,34.775 C76.155,35.988 76.697,36.595 77.78,36.595 L79.29,36.595 C80.294,36.595 80.797,35.988 80.797,34.775 L80.797,12.18 L84.514,12.18" id="Fill-3" fill="#464644" sketch:type="MSShapeGroup"></path>
            <path d="M91.647,25.567 L94.085,25.567 C95.193,25.567 95.748,24.897 95.748,23.557 L95.748,17.559 C95.748,16.219 95.193,15.545 94.085,15.545 L91.647,15.545 L91.647,25.567 L91.647,25.567 Z M87.934,12.18 L95.206,12.18 C98.043,12.18 99.463,13.767 99.463,16.938 L99.463,23.787 C99.463,26.213 98.728,27.747 97.258,28.392 L99.851,39.96 L96.329,39.96 L93.891,28.741 L91.647,28.741 L91.647,39.96 L87.934,39.96 L87.934,12.18 L87.934,12.18 Z" id="Fill-4" fill="#464644" sketch:type="MSShapeGroup"></path>
            <path d="M102.853,39.961 L102.853,12.18 L112.061,12.18 L112.061,15.545 L106.567,15.545 L106.567,23.98 L111.443,23.98 L111.443,27.347 L106.567,27.347 L106.567,36.595 L112.061,36.595 L112.061,39.961 L102.853,39.961" id="Fill-5" fill="#464644" sketch:type="MSShapeGroup"></path>
            <path d="M122.766,25.605 L122.766,12.18 L126.481,12.18 L126.481,39.961 L122.766,39.961 L122.766,34.428 L118.781,21.775 L118.781,39.961 L115.066,39.961 L115.066,12.18 L118.781,12.18 L122.766,25.605" id="Fill-6" fill="#464644" sketch:type="MSShapeGroup"></path>
            <path d="M129.32,22.356 L131.102,17.363 L129.282,17.363 L129.282,12.143 L131.873,12.143 C132.906,12.143 133.421,12.658 133.421,13.688 L133.421,17.363 L131.564,22.356 L129.32,22.356" id="Fill-7" fill="#464644" sketch:type="MSShapeGroup"></path>
            <path d="M143.859,19.648 L143.859,17.208 C143.859,16.101 143.318,15.545 142.236,15.545 L141.654,15.545 C140.598,15.545 140.069,16.101 140.069,17.208 L140.069,21.814 C140.069,22.329 140.172,22.68 140.38,22.86 C140.583,23.039 140.92,23.271 141.385,23.557 L144.905,25.45 C145.679,25.89 146.228,26.232 146.55,26.477 C146.872,26.723 147.122,27.017 147.304,27.366 C147.483,27.716 147.574,28.38 147.574,29.359 L147.574,35.28 C147.574,38.399 146.079,39.96 143.087,39.96 L140.803,39.96 C137.838,39.96 136.354,38.259 136.354,34.852 L136.354,33.461 L140.069,33.461 L140.069,34.971 C140.069,36.053 140.622,36.595 141.732,36.595 L142.392,36.595 C143.369,36.595 143.859,36.053 143.859,34.971 L143.859,30.25 C143.859,29.733 143.757,29.385 143.551,29.204 C143.345,29.024 143.01,28.792 142.547,28.509 L139.024,26.535 C138.249,26.12 137.689,25.775 137.341,25.489 C136.991,25.206 136.74,24.839 136.586,24.388 C136.432,23.935 136.354,23.35 136.354,22.626 L136.354,16.938 C136.354,13.767 137.838,12.18 140.803,12.18 L143.125,12.18 C146.091,12.18 147.574,13.767 147.574,16.938 L147.574,19.648 L143.859,19.648" id="Fill-8" fill="#464644" sketch:type="MSShapeGroup"></path>
            <path d="M169.899,39.961 L166.185,39.961 L161.542,26.38 L161.542,26.146 L165.41,12.18 L168.816,12.18 L164.908,25.992 L169.899,39.961 L169.899,39.961 Z M157.631,12.18 L161.346,12.18 L161.346,39.961 L157.631,39.961 L157.631,12.18 Z" id="Fill-9" fill="#464644" sketch:type="MSShapeGroup"></path>
            <path d="M172.643,12.18 L176.356,12.18 L176.356,39.96 L172.643,39.96 L172.643,12.18 Z" id="Fill-10" fill="#464644" sketch:type="MSShapeGroup"></path>
            <path d="M183.464,36.595 L186.249,36.595 C187.228,36.595 187.72,36.182 187.72,35.356 L187.72,17.559 C187.72,16.218 187.163,15.546 186.056,15.546 L183.464,15.546 L183.464,36.595 L183.464,36.595 Z M179.75,39.961 L179.75,12.18 L186.21,12.18 C189.693,12.18 191.434,13.961 191.434,17.521 L191.434,35.936 C191.434,38.618 189.95,39.961 186.983,39.961 L179.75,39.961 L179.75,39.961 Z" id="Fill-11" fill="#464644" sketch:type="MSShapeGroup"></path>
            <g id="Group-16">
                <mask id="mask-2" sketch:name="Clip 13" fill="white">
                    <use xlink:href="#path-1"></use>
                </mask>
                <g id="Clip-13"></g>
                <path d="M202.038,19.648 L202.038,17.208 C202.038,16.101 201.497,15.545 200.413,15.545 L199.834,15.545 C198.774,15.545 198.247,16.101 198.247,17.208 L198.247,21.814 C198.247,22.329 198.349,22.68 198.555,22.86 C198.762,23.039 199.098,23.271 199.561,23.557 L203.081,25.45 C203.857,25.89 204.404,26.232 204.727,26.477 C205.049,26.723 205.302,27.017 205.481,27.366 C205.663,27.716 205.753,28.38 205.753,29.359 L205.753,35.28 C205.753,38.399 204.256,39.96 201.264,39.96 L198.981,39.96 C196.015,39.96 194.531,38.259 194.531,34.852 L194.531,33.461 L198.247,33.461 L198.247,34.971 C198.247,36.053 198.801,36.595 199.911,36.595 L200.567,36.595 C201.548,36.595 202.038,36.053 202.038,34.971 L202.038,30.25 C202.038,29.733 201.936,29.385 201.728,29.204 C201.521,29.024 201.187,28.792 200.723,28.509 L197.2,26.535 C196.429,26.12 195.867,25.775 195.519,25.489 C195.17,25.206 194.92,24.839 194.764,24.388 C194.61,23.935 194.531,23.35 194.531,22.626 L194.531,16.938 C194.531,13.767 196.015,12.18 198.981,12.18 L201.303,12.18 C204.27,12.18 205.753,13.767 205.753,16.938 L205.753,19.648 L202.038,19.648" id="Fill-12" fill="#464644" sketch:type="MSShapeGroup" mask="url(#mask-2)"></path>
                <path d="M31.31,18.188 C30.87,18.394 30.577,18.726 30.317,19.127 C30.131,19.414 29.953,19.802 29.566,19.823 C29.312,19.839 28.334,19.196 28.229,19.131 C28.124,19.069 28.091,19.097 28.157,19.165 C28.949,19.951 29.341,21.014 28.332,21.816 C27.875,22.18 27.2,22.34 26.631,22.22 C25.55,21.991 25.791,20.277 25.914,19.499 L25.921,19.452 L25.881,19.403 L25.82,19.388 L25.779,19.413 C25.121,19.847 23.659,20.771 23.005,19.88 C22.661,19.411 22.53,18.729 22.673,18.163 C22.989,16.913 24.118,16.831 25.16,17.231 C25.249,17.264 25.262,17.222 25.162,17.15 C25.06,17.083 24.07,16.457 23.981,16.219 C23.842,15.856 24.121,15.534 24.306,15.247 C24.566,14.846 24.746,14.442 24.752,13.958 C24.756,13.661 24.722,13.141 25.171,13.228 C25.263,13.246 25.418,13.296 25.513,13.359 C26.669,14.11 26.87,15.555 26.819,16.82 C26.802,17.157 26.767,17.497 26.715,17.828 C26.7,17.922 26.82,17.862 26.865,17.871 L26.871,17.876 L26.972,17.996 C27.254,17.809 27.548,17.639 27.85,17.485 C28.982,16.916 30.379,16.505 31.54,17.248 C31.636,17.312 31.746,17.431 31.8,17.509 C32.065,17.881 31.576,18.063 31.31,18.188 M28.712,10.079 C21.531,8.209 17.965,14.781 17.888,14.926 C17.811,14.781 14.244,8.209 7.064,10.079 C-0.194,11.971 -8.055,24.451 17.884,41.997 L17.884,42 L17.888,41.998 L17.893,42 L17.893,41.997 C43.83,24.451 35.972,11.971 28.712,10.079" id="Fill-14" fill="#464644" sketch:type="MSShapeGroup" mask="url(#mask-2)"></path>
                <path d="M40.33,4.358 C40.276,4.28 40.167,4.161 40.07,4.099 C38.909,3.355 37.512,3.768 36.379,4.336 C36.078,4.489 35.784,4.66 35.502,4.847 L35.401,4.728 L35.396,4.723 C35.351,4.712 35.231,4.772 35.245,4.68 C35.297,4.348 35.332,4.008 35.35,3.671 C35.4,2.404 35.2,0.96 34.043,0.209 C33.949,0.147 33.794,0.097 33.701,0.079 C33.251,-0.01 33.286,0.512 33.283,0.809 C33.276,1.293 33.097,1.695 32.836,2.098 C32.651,2.385 32.372,2.706 32.51,3.068 C32.602,3.308 33.589,3.934 33.692,4.001 C33.793,4.071 33.78,4.113 33.69,4.081 C32.649,3.683 31.52,3.764 31.203,5.015 C31.062,5.579 31.192,6.263 31.535,6.73 C32.19,7.621 33.652,6.696 34.311,6.264 L34.351,6.237 L34.411,6.253 L34.452,6.304 L34.444,6.35 C34.321,7.127 34.08,8.843 35.161,9.07 C35.73,9.191 36.406,9.029 36.862,8.666 C37.871,7.864 37.479,6.803 36.688,6.016 C36.622,5.946 36.655,5.919 36.759,5.981 C36.865,6.047 37.843,6.689 38.097,6.674 C38.483,6.651 38.662,6.265 38.849,5.978 C39.107,5.575 39.4,5.244 39.839,5.038 C40.106,4.912 40.597,4.731 40.33,4.358" id="Fill-15" fill="#464644" sketch:type="MSShapeGroup" mask="url(#mask-2)"></path>
            </g>
        </g>
    </g>
</svg>
